!!!SOCIAL_FUNCTION:	songs connected with war and hunting
!!!PDT:	1932
!!!OTL: No_39_Song_When_Opening_War_Bundle.krn
!!!REG: Wisconsin
!!!LANG: Non-Tone
!!!LING_GROUP: Algonquin
**kern
*staff1
=1-
=
*clefF4
*k[f#]
*M3/4
16d\LL
16d\
16d\
16d\JJ
8d\L
8d\J
4d\
=2
16c\LL
16c\
16c\
16c\JJ
8A\L
8G\J
4G\
=3
16G\LL
16G\
16G\
16G\JJ
8G\L
8G\J
8G\
8r
=4||
*M2/4
8G\L
8d\J
8d\L
8d\J
=5
8d\L
8d\J
4c\
=6||
*M3/4
16A\LL
16c\
16c\
16c\JJ
8A\L
8A\J
8A\
8r
=7
16c\LL
16c\
16c\
16c\JJ
8A\L
8G\J
4G\
=8
16E\LL
16E\
16E\
16E\JJ
8D\L
8D\J
4D\
=9
16BB\LL
16D\
16D\
16D\JJ
8C/L
8C/J
8BB/
8r
=10
16AA/LL
16C/
16C/
16C/JJ
8BB/L
8BB/J
8GG/
8r
=11
16BB/LL
16BB/
16BB/
16BB/JJ
8GG/L
8GG/J
4GG/
=12
16GG/LL
16GG/
16GG/
16GG/JJ
8GG/L
8GG/J
4GG/
==:|!
*-
